X:906
T:Caliope jig No 1
O:england
R:double jig
M:6/8
L:1/8
K:D
A|FAA AFE|FFA d2c|B/2c/2BA BAB|dde f2e|
def a2b|afe d2e|fbb fge|dBB B2:|
E|FAA AFE|FAA A2E|FBB BAB|cBA B2C|
DEF A2B|AFE D2E|FBB FGE|DB,B, B,2:|
